X:2
T:No.2 Paddy's Trip To Scotland
C:reel
M:4/4
L:1/8
K:D
dAAA BAGF|GABd cABc|dded cABc|
dfed cABc|dA (3AAA BAGF|GABd cABc|
(3ddd ed cABc|[1dfec d2 (3Bcd:|[2dfec d2 FG||
Adfd Adfd|Adfd dcBc|Acec Acec|
Acec dcBc|Adfd Adfd|Adfd dcBA|
aA (3AAA dcBA|[1(3Bcd ec d2 FG:|[2(3Bcd ec d2 Bc||
